X:1
%
T:Redhead's Reel
M:C
L:1/8
R:Reel
S:John Rook music manuscript collection (1840, p. 26)
N:Rook was a multi-instrumentalist from Waverton, near Wigton, Cumbria
Z:AK/Fiddler’s Companion
K:G
d|g2 bg afed|A2 c/B/A/G/ AFFd|g2 bg afed|e2 g/f/e/f/ gGG:|
|:e|dBBd ecce|dBBd AFFe|dBBd ecce|d2 g/f/e/d/ gGG:|]

